Facebook.svg

<?xml version="1.0" encoding="UTF-8" standalone="no"?>
<!-- Created with Inkscape (http://www.inkscape.org/) -->

<svg
   xmlns:dc="http://purl.org/dc/elements/1.1/"
   xmlns:cc="http://creativecommons.org/ns#"
   xmlns:rdf="http://www.w3.org/1999/02/22-rdf-syntax-ns#"
   xmlns:svg="http://www.w3.org/2000/svg"
   xmlns="http://www.w3.org/2000/svg"
   xmlns:xlink="http://www.w3.org/1999/xlink"
   xmlns:sodipodi="http://sodipodi.sourceforge.net/DTD/sodipodi-0.dtd"
   xmlns:inkscape="http://www.inkscape.org/namespaces/inkscape"
   width="100"
   height="100"
   id="svg3932"
   version="1.1"
   inkscape:version="0.48.4 r9939"
   sodipodi:docname="Facebook.svg">
  <metadata
     id="metadata13">
    <rdf:RDF>
      <cc:Work
         rdf:about="">
        <dc:format>image/svg+xml</dc:format>
        <dc:type
           rdf:resource="http://purl.org/dc/dcmitype/StillImage" />
      </cc:Work>
    </rdf:RDF>
  </metadata>
  <defs
     id="defs11">
    <linearGradient
       inkscape:collect="always"
       xlink:href="#linearGradient5322"
       id="linearGradient3799"
       x1="-72.770866"
       y1="98.260445"
       x2="-108.53157"
       y2="74.678169"
       gradientUnits="userSpaceOnUse"
       gradientTransform="translate(157.25636,-12.92373)" />
    <linearGradient
       id="linearGradient5322">
      <stop
         style="stop-color:#000000;stop-opacity:0.37391305;"
         offset="0"
         id="stop5324" />
      <stop
         style="stop-color:#000000;stop-opacity:0;"
         offset="1"
         id="stop5326" />
    </linearGradient>
    <linearGradient
       y2="74.678169"
       x2="-108.53157"
       y1="98.260445"
       x1="-72.770866"
       gradientTransform="translate(157.25636,-12.923727)"
       gradientUnits="userSpaceOnUse"
       id="linearGradient3833"
       xlink:href="#linearGradient5322"
       inkscape:collect="always" />
  </defs>
  <sodipodi:namedview
     pagecolor="#ffffff"
     bordercolor="#666666"
     borderopacity="1"
     objecttolerance="10"
     gridtolerance="10"
     guidetolerance="10"
     inkscape:pageopacity="0"
     inkscape:pageshadow="2"
     inkscape:window-width="1920"
     inkscape:window-height="1145"
     id="namedview9"
     showgrid="false"
     inkscape:zoom="5.3400704"
     inkscape:cx="55.4817"
     inkscape:cy="23.326445"
     inkscape:window-x="-2"
     inkscape:window-y="-3"
     inkscape:window-maximized="1"
     inkscape:current-layer="svg3932" />
  <path
     inkscape:connector-curvature="0"
     id="path7-7-8"
     d="M 12.1375,0 C 5.4350792,0 -2.084021e-5,5.43508 0,12.1375 L 0,87.86249 C 0,94.5649 5.4350792,100.00002 12.1375,100 l 75.725,0 C 94.56494,100 99.99998,94.5649 100,87.86249 L 100,12.1375 C 100,5.43508 94.56516,0 87.8625,0 z"
     style="fill:#43609c;fill-opacity:1;display:inline"
     sodipodi:nodetypes="sssccssss" />
  <path
     style="fill:#000000;fill-opacity:0.78431373;display:inline"
     d="M 12.1375,0 C 5.435084,0 -2.0000185e-5,5.43508 0,12.1375 l 0,75.725 C 0,94.56491 5.435084,100.00002 12.1375,100 l 75.725,0 C 94.56494,100 99.99998,94.56491 100,87.8625 l 0,-75.725 C 100,5.43508 94.56516,0 87.8625,0 L 12.1375,0 z M 18.19375,8 81.8,8 C 87.430236,8 92,12.56372 92,18.19375 L 92,81.8 C 91.999984,87.43002 87.43005,92 81.8,92 L 18.19375,92 C 12.56372,92.00002 8,87.43002 8,81.8 L 8,18.19375 C 7.999984,12.56372 12.56372,8 18.19375,8 z"
     id="path7-8-6-9"
     inkscape:connector-curvature="0" />
  <path
     style="fill:#ffffff;fill-opacity:1;display:inline"
     d="m 72.825,15.10625 c -11.52336,0 -19.4125,7.04017 -19.4125,19.95625 l 0,11.125 -13.03125,0 0,15.0875 13.03125,0 0,38.725 15.5875,0 0,-38.725 12.99375,0 1.95,-15.0875 -14.94375,0 0,-9.6375 c 0,-4.36943 1.208392,-7.34375 7.475,-7.34375 l 7.99375,-0.0125 0,-13.49375 C 83.08572,15.51641 78.344438,15.10625 72.825,15.10625 z"
     id="path5"
     inkscape:connector-curvature="0"
     sodipodi:nodetypes="ssccccccccccscccs" />
  <path
     style="fill:url(#linearGradient3833);fill-opacity:1;display:inline"
     d="M 12.1375,2.2999448e-6 C 5.43509,2.2999448e-6 -1.9999945e-5,5.435082 0,12.137502 L 0,87.862503 C 0,94.564903 5.43509,100.00002 12.1375,100 l 75.725004,0 C 94.564944,100 99.999984,94.564903 100,87.862503 l 0,-75.725001 C 100,5.435082 94.565164,2.2999448e-6 87.862504,2.2999448e-6 z"
     id="path7-8-6-9-9"
     inkscape:connector-curvature="0"
     sodipodi:nodetypes="sssssssss" />
</svg>

<svg xmlns="http://www.w3.org/2000/svg" viewBox="0 0 100 100"><defs><linearGradient y2="61.754" x2="48.725" y1="85.34" x1="84.49" gradientUnits="userSpaceOnUse" id="0"><stop stop-opacity=".374"/><stop offset="1" stop-opacity="0"/></linearGradient></defs><path d="m12.138 0c-6.702 0-12.138 5.435-12.138 12.138v75.72c0 6.702 5.435 12.138 12.138 12.138h75.72c6.702 0 12.137-5.435 12.138-12.138v-75.72c0-6.702-5.435-12.138-12.138-12.138z" fill="#43609c"/><path d="m12.138 0c-6.702 0-12.138 5.435-12.138 12.138v75.72c0 6.702 5.435 12.138 12.138 12.138h75.72c6.702 0 12.137-5.435 12.138-12.138v-75.72c0-6.702-5.435-12.138-12.138-12.138h-75.72m6.06 8h63.61c5.63 0 10.2 4.564 10.2 10.194v63.61c0 5.63-4.57 10.2-10.2 10.2h-63.61c-5.63 0-10.194-4.57-10.194-10.2v-63.61c0-5.63 4.564-10.194 10.194-10.194" fill-opacity=".784"/><path d="m72.825 15.11c-11.523 0-19.413 7.04-19.413 19.956v11.125h-13.03v15.09h13.03v38.725h15.587v-38.725h12.994l1.95-15.09h-14.944v-9.638c0-4.369 1.208-7.344 7.475-7.344l7.994-.012v-13.494c-1.383-.184-6.124-.594-11.644-.594" fill="#fff"/><path d="m12.138 0c-6.702 0-12.138 5.435-12.138 12.137v75.73c0 6.702 5.435 12.138 12.138 12.137h75.73c6.702 0 12.137-5.435 12.137-12.137v-75.73c0-6.702-5.435-12.137-12.137-12.137z" fill="url(#0)"/></svg>
